Simply-Blue-Circles/scalable/apps/org.kde.mcwsremote.svg

<svg xmlns="http://www.w3.org/2000/svg" width="48" height="48" viewBox="0 0 12.7 12.7"><path d="M6.34.07a6.29 6.29 0 0 0-6.29 6.3 6.29 6.29 0 0 0 6.3 6.28 6.29 6.29 0 0 0 6.28-6.29A6.29 6.29 0 0 0 6.34.07zM6.32 1l.01.01a5.4 5.4 0 0 1 3.692 1.468l-1.93 1.93a2.646 2.646 0 0 0-1.766-.68 2.646 2.646 0 0 0-1.767.68L2.622 2.471A5.4 5.4 0 0 1 6.32 1zm-.764.632V3.22h.596V1.632h-.596zm.992 0V3.22h.596V1.632h-.596zm-4.125 1.04l1.936 1.936a2.646 2.646 0 0 0-.68 1.766 2.646 2.646 0 0 0 .68 1.767 2.646 2.646 0 0 0 .098.103 2.646 2.646 0 0 1-.03-.026 2.646 2.646 0 0 1-.068-.077l-1.973 1.973A5.4 5.4 0 0 1 .92 6.42 5.4 5.4 0 0 1 2.423 2.67zm7.803.002A5.4 5.4 0 0 1 11.73 6.41a5.4 5.4 0 0 1-1.468 3.701l-1.97-1.97a2.646 2.646 0 0 0 .68-1.767 2.646 2.646 0 0 0-.68-1.766l1.934-1.934zm-3.9 1.347a2.353 2.353 0 0 1 2.353 2.353 2.353 2.353 0 0 1-2.353 2.354 2.353 2.353 0 0 1-2.354-2.354 2.353 2.353 0 0 1 2.354-2.353zm-1.777.397a2.646 2.646 0 0 0-.093.087 2.646 2.646 0 0 1 .026-.029 2.646 2.646 0 0 1 .067-.058zm3.646.086a2.646 2.646 0 0 1 .029.027 2.646 2.646 0 0 1 .058.066 2.646 2.646 0 0 0-.087-.093zm-3.032.39v2.911l2.91-1.455-2.91-1.455zm-2.601.594L1.34 6.35l1.222.862v-.539l.763.539V5.488l-.763.539v-.539zm6.765 0v1.724l.763-.539v.539l1.22-.862-1.22-.862v.539l-.763-.539zM8.196 8.243a2.646 2.646 0 0 1-.027.03 2.646 2.646 0 0 1-.066.057 2.646 2.646 0 0 0 .093-.087zm-3.637.098a2.646 2.646 0 0 0 1.767.68 2.646 2.646 0 0 0 1.766-.68l1.975 1.975A5.4 5.4 0 0 1 6.33 11.82a5.4 5.4 0 0 1-3.744-1.506L4.56 8.34zm.997 1.205v1.587h1.588V9.546H5.556z" fill="#2c89a0"/></svg>

<?xml version="1.0" encoding="UTF-8" standalone="no"?>
<svg
   xmlns:dc="http://purl.org/dc/elements/1.1/"
   xmlns:cc="http://creativecommons.org/ns#"
   xmlns:rdf="http://www.w3.org/1999/02/22-rdf-syntax-ns#"
   xmlns:svg="http://www.w3.org/2000/svg"
   xmlns="http://www.w3.org/2000/svg"
   xmlns:sodipodi="http://sodipodi.sourceforge.net/DTD/sodipodi-0.dtd"
   xmlns:inkscape="http://www.inkscape.org/namespaces/inkscape"
   width="48"
   height="48"
   viewBox="0 0 12.7 12.7"
   version="1.1"
   id="svg4"
   sodipodi:docname="org.kde.mcwsremote.svg"
   inkscape:version="0.92.4 (5da689c313, 2019-01-14)">
  <metadata
     id="metadata10">
    <rdf:RDF>
      <cc:Work
         rdf:about="">
        <dc:format>image/svg+xml</dc:format>
        <dc:type
           rdf:resource="http://purl.org/dc/dcmitype/StillImage" />
        <dc:title></dc:title>
      </cc:Work>
    </rdf:RDF>
  </metadata>
  <defs
     id="defs8" />
  <sodipodi:namedview
     pagecolor="#ffffff"
     bordercolor="#666666"
     borderopacity="1"
     objecttolerance="10"
     gridtolerance="10"
     guidetolerance="10"
     inkscape:pageopacity="0"
     inkscape:pageshadow="2"
     inkscape:window-width="1087"
     inkscape:window-height="480"
     id="namedview6"
     showgrid="false"
     inkscape:zoom="4.9166667"
     inkscape:cx="2.1355932"
     inkscape:cy="24"
     inkscape:window-x="0"
     inkscape:window-y="25"
     inkscape:window-maximized="0"
     inkscape:current-layer="svg4" />
  <path
     d="M 6.34,0.07 A 6.29,6.29 0 0 0 0.05,6.37 6.29,6.29 0 0 0 6.35,12.65 6.29,6.29 0 0 0 12.63,6.36 6.29,6.29 0 0 0 6.34,0.07 Z M 6.32,1 6.33,1.01 a 5.4,5.4 0 0 1 3.692,1.468 l -1.93,1.93 A 2.646,2.646 0 0 0 6.326,3.728 2.646,2.646 0 0 0 4.559,4.408 L 2.622,2.471 A 5.4,5.4 0 0 1 6.32,1 Z M 5.556,1.632 V 3.22 H 6.152 V 1.632 Z m 0.992,0 V 3.22 H 7.144 V 1.632 Z M 2.423,2.672 4.359,4.608 A 2.646,2.646 0 0 0 3.679,6.374 2.646,2.646 0 0 0 4.359,8.141 2.646,2.646 0 0 0 4.457,8.244 2.646,2.646 0 0 1 4.427,8.218 2.646,2.646 0 0 1 4.359,8.141 L 2.386,10.114 A 5.4,5.4 0 0 1 0.92,6.42 5.4,5.4 0 0 1 2.423,2.67 Z m 7.803,0.002 A 5.4,5.4 0 0 1 11.73,6.41 5.4,5.4 0 0 1 10.262,10.111 L 8.292,8.141 A 2.646,2.646 0 0 0 8.972,6.374 2.646,2.646 0 0 0 8.292,4.608 Z m -3.9,1.347 A 2.353,2.353 0 0 1 8.679,6.374 2.353,2.353 0 0 1 6.326,8.728 2.353,2.353 0 0 1 3.972,6.374 2.353,2.353 0 0 1 6.326,4.021 Z M 4.549,4.418 A 2.646,2.646 0 0 0 4.456,4.505 2.646,2.646 0 0 1 4.482,4.476 2.646,2.646 0 0 1 4.549,4.418 Z M 8.195,4.504 A 2.646,2.646 0 0 1 8.224,4.531 2.646,2.646 0 0 1 8.282,4.597 2.646,2.646 0 0 0 8.195,4.504 Z M 5.163,4.894 V 7.805 L 8.073,6.35 5.163,4.895 Z M 2.562,5.488 1.34,6.35 2.562,7.212 V 6.673 L 3.325,7.212 V 5.488 L 2.562,6.027 Z m 6.765,0 V 7.212 L 10.09,6.673 V 7.212 L 11.31,6.35 10.09,5.488 V 6.027 Z M 8.196,8.243 A 2.646,2.646 0 0 1 8.169,8.273 2.646,2.646 0 0 1 8.103,8.33 2.646,2.646 0 0 0 8.196,8.243 Z M 4.559,8.341 a 2.646,2.646 0 0 0 1.767,0.68 2.646,2.646 0 0 0 1.766,-0.68 l 1.975,1.975 A 5.4,5.4 0 0 1 6.33,11.82 5.4,5.4 0 0 1 2.586,10.314 L 4.56,8.34 Z m 0.997,1.205 v 1.587 H 7.144 V 9.546 Z"
     id="path2"
     inkscape:connector-curvature="0"
     style="fill:#2c89a0" />
</svg>
